X:1
T:Title
%%score { 1 | 2 }
L:1/8
Q:1/4=84
M:4/4
K:G
V:1 treble nm="Grand Piano"
V:2 bass 
V:1
 [B,D]4 [CE]3 [B,D] | [B,D]6 D2 | G>G GG BBAG |[M:3/8] G F2 |[M:5/8] [FA][FA]>[FA] [FA][FA] | %5
w: Charles~Edward~Prior * *|||||
[M:4/4] [Ac][Ac][GB][FA] B3 B | B>B BB GGAB | [=Fd] [Ec]2 E D>G GG | %8
w: |||
 AE F>[B,DG] [B,DG]4[Q:1/4=83][Q:1/4=82][Q:1/4=80][Q:1/4=79][Q:1/4=78][Q:1/4=77][Q:1/4=75][Q:1/4=74][Q:1/4=73][Q:1/4=72][Q:1/4=70][Q:1/4=69][Q:1/4=68][Q:1/4=67][Q:1/4=65][Q:1/4=64] | %9
w: |
 [EG]4 [Ec]3 [EG] | [DB]6 z2 |] %11
w: ||
V:2
 [G,,G,]4 [C,G,]3 [G,,G,] | [G,,G,]6 [G,B,]2 | %2
 [G,B,D]>[G,B,D] [G,B,D][G,B,D] [G,DG][G,DG][K:bass][G,CD][G,B,D] |[M:3/8] [D,B,D] [D,A,D]2 | %4
[M:5/8] [D,D][D,D]>[D,D] [D,D][D,D] |[M:4/4] [D,D][D,D][D,D][D,D][K:treble] [G,DG]3 [G,DG] | %6
 [G,DG]>[G,DG] [G,DG][G,DG] [G,B,][G,B,][G,CF][G,D=F] | %7
 [C,C] [C,C]2 [C,G,C] [D,G,B,]>[D,B,D] [D,B,D][D,B,D] | [D,CD][D,CD] [D,CD]>[G,,G,] [G,,G,]4 | %9
 [C,C]4 [C,G,]3 [C,G,] | [G,,G,]6 z2 |] %11

